public/socials/white_whatsapp.svg

<svg width="42" height="42" viewBox="0 0 42 42" fill="none" xmlns="http://www.w3.org/2000/svg">
<g id="bi:whatsapp" clip-path="url(#clip0_656_222)">
<path id="Vector" d="M35.7026 6.10588C33.7771 4.16253 31.4841 2.62183 28.9572 1.57357C26.4302 0.525302 23.72 -0.00956622 20.9842 0.000129493C9.52087 0.000129493 0.1785 9.33988 0.168 20.8059C0.168 24.4783 1.12875 28.0509 2.94263 31.214L0 42.0001L11.0355 39.1074C14.0884 40.7688 17.5086 41.6396 20.9842 41.6405H20.9948C32.4608 41.6405 41.8005 32.3008 41.811 20.8243C41.8136 18.0891 41.275 15.3805 40.2262 12.8544C39.1774 10.3284 37.6417 8.03481 35.7026 6.10588ZM20.9842 38.1178C17.8841 38.1188 14.841 37.2846 12.1748 35.7028L11.5447 35.3248L4.998 37.0415L6.74625 30.6549L6.33675 29.996C4.60374 27.2406 3.6872 24.0504 3.69337 20.7954C3.69337 11.2771 11.4555 3.51238 20.9948 3.51238C23.2673 3.5083 25.5182 3.9541 27.6177 4.82407C29.7171 5.69404 31.6236 6.97097 33.2272 8.58125C34.8365 10.1853 36.1122 12.092 36.9808 14.1915C37.8494 16.291 38.2938 18.5417 38.2882 20.8138C38.2778 30.3661 30.5156 38.1178 20.9842 38.1178ZM30.4736 25.166C29.9565 24.9061 27.4024 23.6488 26.922 23.4703C26.4442 23.2996 26.0951 23.2104 25.7539 23.7301C25.4047 24.2473 24.4072 25.4259 24.108 25.7645C23.8088 26.1136 23.499 26.153 22.9792 25.8958C22.4621 25.6333 20.7847 25.0873 18.8003 23.3101C17.2515 21.932 16.2146 20.2258 15.9049 19.7086C15.6056 19.1889 15.876 18.9106 16.1359 18.6508C16.3643 18.4198 16.653 18.0418 16.9129 17.7425C17.1754 17.4433 17.262 17.2228 17.4326 16.8763C17.6032 16.5245 17.5219 16.2253 17.3932 15.9654C17.262 15.7055 16.2251 13.1409 15.7867 12.1066C15.3667 11.0855 14.9389 11.2273 14.6186 11.2141C14.3194 11.1958 13.9703 11.1958 13.6211 11.1958C13.3575 11.2023 13.098 11.2633 12.8591 11.3749C12.6201 11.4864 12.4068 11.6462 12.2325 11.8441C11.7547 12.3639 10.4186 13.6213 10.4186 16.1859C10.4186 18.7505 12.2824 21.2154 12.5449 21.5645C12.8021 21.9136 16.2041 27.161 21.4252 29.4185C22.659 29.9566 23.6303 30.2743 24.3889 30.5158C25.6358 30.9148 26.7619 30.8544 27.6596 30.7258C28.6571 30.5735 30.7335 29.4658 31.1719 28.2504C31.6024 27.0324 31.6024 25.9929 31.4711 25.775C31.3425 25.5545 30.9934 25.4259 30.4736 25.166Z" fill="#34D186"/>
</g>
<defs>
<clipPath id="clip0_656_222">
<rect width="42" height="42" fill="white"/>
</clipPath>
</defs>
</svg>

<svg width="42" height="42" fill="none" xmlns="http://www.w3.org/2000/svg"><g clip-path="url(#a)"><path d="M35.703 6.106A20.617 20.617 0 0 0 20.984 0C9.521 0 .178 9.34.168 20.806c0 3.672.96 7.245 2.775 10.408L0 42l11.036-2.893a20.824 20.824 0 0 0 9.948 2.534h.01c11.467 0 20.806-9.34 20.817-20.817a20.733 20.733 0 0 0-6.108-14.718zM20.984 38.118c-3.1 0-6.143-.833-8.81-2.415l-.63-.378-6.546 1.716 1.748-6.386-.41-.659a17.22 17.22 0 0 1-2.643-9.2c0-9.519 7.763-17.284 17.302-17.284a17.22 17.22 0 0 1 12.232 5.07 17.21 17.21 0 0 1 5.061 12.232c-.01 9.552-7.772 17.304-17.304 17.304zm9.49-12.952c-.518-.26-3.072-1.517-3.552-1.696-.478-.17-.827-.26-1.168.26-.35.517-1.347 1.696-1.646 2.035-.3.349-.609.388-1.129.13-.517-.262-2.194-.808-4.179-2.585-1.549-1.378-2.585-3.084-2.895-3.601-.3-.52-.029-.798.23-1.058.23-.231.518-.61.778-.909.262-.299.349-.52.52-.866.17-.352.089-.65-.04-.91-.131-.26-1.168-2.825-1.606-3.86-.42-1.02-.848-.879-1.168-.892-.3-.018-.649-.018-.998-.018a1.912 1.912 0 0 0-1.389.648c-.477.52-1.813 1.777-1.813 4.342 0 2.564 1.863 5.03 2.126 5.378.257.35 3.66 5.597 8.88 7.855 1.234.538 2.205.855 2.964 1.097 1.247.399 2.373.338 3.27.21.998-.152 3.075-1.26 3.513-2.476.43-1.218.43-2.257.3-2.475-.13-.22-.479-.35-.998-.609z" fill="#34D186"/></g><defs><clipPath id="a"><path fill="#fff" d="M0 0h42v42H0z"/></clipPath></defs></svg>
